fs/arrow_hook_up_right_16_filled.svg

<svg viewBox="0 0 16 16" fill="none" xmlns="http://www.w3.org/2000/svg" height="1em" width="1em">
  <path d="M4.46157 10.9127C5.11686 11.5885 6.06816 12 7.24999 12H10.25C10.6642 12 11 11.6642 11 11.25C11 10.8358 10.6642 10.5 10.25 10.5H7.24999C6.43183 10.5 5.88313 10.224 5.53842 9.86852C5.18517 9.50422 5 9.00906 5 8.5C5 7.99094 5.18517 7.49578 5.53843 7.13148C5.88314 6.776 6.43183 6.5 7.24999 6.5H10.4393L9.71967 7.21967C9.42678 7.51256 9.42678 7.98744 9.71967 8.28033C10.0126 8.57322 10.4874 8.57322 10.7803 8.28033L12.7803 6.28033C13.0732 5.98744 13.0732 5.51256 12.7803 5.21967L10.7803 3.21967C10.4874 2.92678 10.0126 2.92678 9.71967 3.21967C9.42678 3.51256 9.42678 3.98744 9.71967 4.28033L10.4393 5H7.24999C6.06816 5 5.11686 5.4115 4.46157 6.08727C3.81483 6.75422 3.5 7.63406 3.5 8.5C3.5 9.36594 3.81483 10.2458 4.46157 10.9127Z" fill="#212121"/>
</svg>

<svg viewBox="0 0 16 16" fill="none" xmlns="http://www.w3.org/2000/svg" height="1em" width="1em">
  <path d="M4.462 10.913C5.117 11.588 6.068 12 7.25 12h3a.75.75 0 0 0 0-1.5h-3c-.818 0-1.367-.276-1.712-.631A1.96 1.96 0 0 1 5 8.5c0-.51.185-1.004.538-1.369.345-.355.894-.631 1.712-.631h3.19l-.72.72a.75.75 0 0 0 1.06 1.06l2-2a.75.75 0 0 0 0-1.06l-2-2a.75.75 0 1 0-1.06 1.06l.72.72H7.25c-1.182 0-2.133.412-2.788 1.087A3.46 3.46 0 0 0 3.5 8.5c0 .866.315 1.746.962 2.413Z" fill="#212121"/>
</svg>
